X:1
T:The Kilfenora No. 3
R:jig
M:6/8
L:1/8
K:D
|:F2A ABA|ABA FED|G2B ~B2A|~B2A Bcd|
|F2A ABA|ABA FED|dcB AGF|1 GFE D2E:|2 GFE D2A|]
|:d2A F2A|dfe d2c|dcB AGF|EFG ABc|
|d2A F2A|dfe d2c|dcB AGF|1 GFE D2A:|2 GFE D2E|]